**harm	**harte	**timestamp	**phrase	**leadinstrument	**kern
*M5/4	*M5/4	*	*	*	*
*c:	*c:	*	*	*	*c:
1r;	N	0	.	r	1r;
=1	=1	=1	=1	=1	=1
*>A2_intro	*>A2_intro	*>A2_intro	*>A2_intro	*>A2_intro	*>A2_intro
2.i	C:1	0.302	newline	bass	2C 2e- 2g
2iv	F:1	1.482	.	bass	2F 2a- 2cc
=2	=2	=2	=2	=2	=2
2.i	C:1	2.269	.	bass	2C 2e- 2g
2iv	F:1	3.45	.	bass	2F 2a- 2cc
=3	=3	=3	=3	=3	=3
2.i	C:min	4.237	newline	flute	2C 2e- 2g
2iv	F:sus4	5.415	.	flute	2F 2a- 2cc
=4	=4	=4	=4	=4	=4
2.i	C:min	6.201	.	flute	2C 2e- 2g
2iv	F:sus4	7.379	.	flute	2F 2a- 2cc
=5	=5	=5	=5	=5	=5
2.i	C:min	8.164	.	flute	2C 2e- 2g
2iv	F:sus4	9.342	.	flute	2F 2a- 2cc
=6	=6	=6	=6	=6	=6
2.i	C:min	10.128	.	flute	2C 2e- 2g
2iv	F:sus4	11.306	.	flute	2F 2a- 2cc
=7	=7	=7	=7	=7	=7
2.IV	F:maj	12.091	newline	flute	2F 2a 2cc
4-III	E-:maj	13.251	.	flute	4E-- 4g- 4b--
4-VII	B-:sus4	13.638	.	flute	4B- 4dd 4ff
=8	=8	=8	=8	=8	=8
4%5i7	C:min7	14.025	.	flute	4C 4e- 4g 4b
=9	=9	=9	=9	=9	=9
2.IV	F:maj	15.959	.	flute	2F 2a 2cc
4-III	E-:maj	17.119	.	flute	4E-- 4g- 4b--
4-VII	B-:sus4	17.506	.	flute	4B- 4dd 4ff
=10	=10	=10	=10	=10	=10
4%5i7	C:min7	17.892	.	flute	4C 4e- 4g 4b
=11	=11	=11	=11	=11	=11
4%5i	C:5	19.826	newline	flute	4C 4e- 4g
=12	=12	=12	=12	=12	=12
4%5IV	F:maj	21.857	.	flute	4F 4a 4cc
=13	=13	=13	=13	=13	=13
2.V	G:maj	23.887	newline	flute	2G 2b 2dd
2v	G:sus4(b7)	25.045	.	flute	2G 2b- 2dd
=14	=14	=14	=14	=14	=14
2.V	G:maj	25.817	.	flute	2G 2b 2dd
2v	G:sus4(b7)	26.975	.	flute	2G 2b- 2dd
=15	=15	=15	=15	=15	=15
2.V	G:maj	27.747	.	flute	2G 2b 2dd
2v	G:sus4(b7)	28.904	.	flute	2G 2b- 2dd
=16	=16	=16	=16	=16	=16
4%5V	G:maj	29.676	.	flute	4G 4b 4dd
=17	=17	=17	=17	=17	=17
2.II	D:maj	31.606	newline	flute	2D 2f# 2a
2V	G:maj	32.769	.	flute	2G 2b 2dd
=18	=18	=18	=18	=18	=18
2.II	D:maj	33.543	.	flute	2D 2f# 2a
2V	G:maj	34.706	.	flute	2G 2b 2dd
=19	=19	=19	=19	=19	=19
2.II	D:maj	35.481	.	flute	2D 2f# 2a
2V	G:maj	36.643	.	flute	2G 2b 2dd
=20	=20	=20	=20	=20	=20
4%5II	D:maj	37.418	.	flute	4D 4f# 4a
=21	=21	=21	=21	=21	=21
*>B_verse	*>B_verse	*>B_verse	*>B_verse	*>B_verse	*>B_verse
2.I	C:maj	39.356	newline	voice	2C 2e 2g
2-VII	B-:maj	40.538	.	voice	2B- 2dd 2ff
=22	=22	=22	=22	=22	=22
2.I	C:maj	41.326	.	voice	2C 2e 2g
2-VII	B-:maj	42.509	.	voice	2B- 2dd 2ff
=23	=23	=23	=23	=23	=23
2.I	C:maj	43.297	.	voice	2C 2e 2g
2-VII	B-:maj	44.479	.	voice	2B- 2dd 2ff
=24	=24	=24	=24	=24	=24
2.I	C:maj	45.268	.	voice	2C 2e 2g
2-VII	B-:maj	46.45	.	voice	2B- 2dd 2ff
=25	=25	=25	=25	=25	=25
2.I	C:maj	47.238	newline	voice	2C 2e 2g
2-VII	B-:maj	48.418	.	voice	2B- 2dd 2ff
=26	=26	=26	=26	=26	=26
2.I	C:maj	49.204	.	voice	2C 2e 2g
2-VII	B-:maj	50.383	.	voice	2B- 2dd 2ff
=27	=27	=27	=27	=27	=27
2.I	C:maj	51.17	.	voice	2C 2e 2g
2-VII	B-:maj	52.349	.	voice	2B- 2dd 2ff
=28	=28	=28	=28	=28	=28
4%5I	C:maj	53.136	.	voice	4C 4e 4g
=29	=29	=29	=29	=29	=29
2.IV	F:maj	55.101	newline	voice	2F 2a 2cc
4-III	E-:maj	56.287	.	voice	4E-- 4g- 4b--
4-VII	B-:sus4	56.683	.	voice	4B- 4dd 4ff
=30	=30	=30	=30	=30	=30
2.IV	F:maj	57.078	.	voice	2F 2a 2cc
4-III	E-:maj	58.264	.	voice	4E-- 4g- 4b--
4-VII	B-:sus4	58.659	.	voice	4B- 4dd 4ff
=31	=31	=31	=31	=31	=31
2.IV	F:maj	59.055	.	voice	2F 2a 2cc
4-III	E-:maj	60.241	.	voice	4E-- 4g- 4b--
4-VII	B-:sus4	60.636	.	voice	4B- 4dd 4ff
=32	=32	=32	=32	=32	=32
2.IV	F:maj	61.031	.	voice	2F 2a 2cc
4-III	E-:maj	62.217	.	voice	4E-- 4g- 4b--
4-VII	B-:sus4	62.613	.	voice	4B- 4dd 4ff
=33	=33	=33	=33	=33	=33
2.I	C:maj	63.008	newline	voice	2C 2e 2g
2-VII	B-:maj	64.191	.	voice	2B- 2dd 2ff
=34	=34	=34	=34	=34	=34
2.I	C:maj	64.979	.	voice	2C 2e 2g
2-VII	B-:maj	66.162	.	voice	2B- 2dd 2ff
=35	=35	=35	=35	=35	=35
2.I	C:maj	66.95	.	voice	2C 2e 2g
2-VII	B-:maj	68.133	.	voice	2B- 2dd 2ff
=36	=36	=36	=36	=36	=36
4%5I	C:maj	68.922	.	voice	4C 4e 4g
=37	=37	=37	=37	=37	=37
*>A_interlude	*>A_interlude	*>A_interlude	*>A_interlude	*>A_interlude	*>A_interlude
2.i	C:min	70.893	newline	flute	2C 2e- 2g
2iv	F:sus4	72.102	.	flute	2F 2a- 2cc
=38	=38	=38	=38	=38	=38
2.i	C:min	72.908	.	flute	2C 2e- 2g
2iv	F:sus4	74.117	.	flute	2F 2a- 2cc
=39	=39	=39	=39	=39	=39
2.i	C:min	74.923	.	flute	2C 2e- 2g
2iv	F:sus4	76.132	.	flute	2F 2a- 2cc
=40	=40	=40	=40	=40	=40
2.i	C:min	76.938	.	flute	2C 2e- 2g
2iv	F:sus4	78.147	.	flute	2F 2a- 2cc
=41	=41	=41	=41	=41	=41
2.IV	F:maj	78.953	newline	flute	2F 2a 2cc
4-III	E-:maj	80.163	.	flute	4E-- 4g- 4b--
4-VII	B-:sus4	80.566	.	flute	4B- 4dd 4ff
=42	=42	=42	=42	=42	=42
4%5i7	C:min7	80.969	.	flute	4C 4e- 4g 4b
=43	=43	=43	=43	=43	=43
2.IV	F:maj	82.985	.	flute	2F 2a 2cc
4-III	E-:maj	84.195	.	flute	4E-- 4g- 4b--
4-VII	B-:sus4	84.598	.	flute	4B- 4dd 4ff
=44	=44	=44	=44	=44	=44
4%5i7	C:min7	85.001	.	flute	4C 4e- 4g 4b
=45	=45	=45	=45	=45	=45
4%5i	C:5	87.017	newline	flute	4C 4e- 4g
=46	=46	=46	=46	=46	=46
4%5IV	F:maj	89.037	.	flute	4F 4a 4cc
=47	=47	=47	=47	=47	=47
2.V	G:maj	91.057	newline	flute	2G 2b 2dd
2v	G:sus4(b7)	92.244	.	flute	2G 2b- 2dd
=48	=48	=48	=48	=48	=48
2.V	G:maj	93.036	.	flute	2G 2b 2dd
2v	G:sus4(b7)	94.223	.	flute	2G 2b- 2dd
=49	=49	=49	=49	=49	=49
2.V	G:maj	95.015	.	flute	2G 2b 2dd
2v	G:sus4(b7)	96.202	.	flute	2G 2b- 2dd
=50	=50	=50	=50	=50	=50
4%5V	G:maj	96.993	.	flute	4G 4b 4dd
=51	=51	=51	=51	=51	=51
2.II	D:maj	98.972	newline	flute	2D 2f# 2a
2V	G:maj	100.146	.	flute	2G 2b 2dd
=52	=52	=52	=52	=52	=52
2.II	D:maj	100.928	.	flute	2D 2f# 2a
2V	G:maj	102.101	.	flute	2G 2b 2dd
=53	=53	=53	=53	=53	=53
2.II	D:maj	102.884	.	flute	2D 2f# 2a
2V	G:maj	104.057	.	flute	2G 2b 2dd
=54	=54	=54	=54	=54	=54
4%5II	D:maj	104.839	.	flute	4D 4f# 4a
=55	=55	=55	=55	=55	=55
*>B_verse	*>B_verse	*>B_verse	*>B_verse	*>B_verse	*>B_verse
2.I	C:maj	106.795	newline	voice	2C 2e 2g
2-VII	B-:maj	107.984	.	voice	2B- 2dd 2ff
=56	=56	=56	=56	=56	=56
2.I	C:maj	108.778	.	voice	2C 2e 2g
2-VII	B-:maj	109.967	.	voice	2B- 2dd 2ff
=57	=57	=57	=57	=57	=57
2.I	C:maj	110.76	.	voice	2C 2e 2g
2-VII	B-:maj	111.95	.	voice	2B- 2dd 2ff
=58	=58	=58	=58	=58	=58
2.I	C:maj	112.743	.	voice	2C 2e 2g
2-VII	B-:maj	113.933	.	voice	2B- 2dd 2ff
=59	=59	=59	=59	=59	=59
2.I	C:maj	114.726	newline	voice	2C 2e 2g
2-VII	B-:maj	115.919	.	voice	2B- 2dd 2ff
=60	=60	=60	=60	=60	=60
2.I	C:maj	116.714	.	voice	2C 2e 2g
2-VII	B-:maj	117.907	.	voice	2B- 2dd 2ff
=61	=61	=61	=61	=61	=61
2.I	C:maj	118.703	.	voice	2C 2e 2g
2-VII	B-:maj	119.896	.	voice	2B- 2dd 2ff
=62	=62	=62	=62	=62	=62
4%5I	C:maj	120.691	.	voice	4C 4e 4g
=63	=63	=63	=63	=63	=63
2.IV	F:maj	122.68	newline	voice	2F 2a 2cc
4-III	E-:maj	123.876	.	voice	4E-- 4g- 4b--
4-VII	B-:sus4	124.274	.	voice	4B- 4dd 4ff
=64	=64	=64	=64	=64	=64
2.IV	F:maj	124.673	.	voice	2F 2a 2cc
4-III	E-:maj	125.869	.	voice	4E-- 4g- 4b--
4-VII	B-:sus4	126.268	.	voice	4B- 4dd 4ff
=65	=65	=65	=65	=65	=65
2.IV	F:maj	126.667	.	voice	2F 2a 2cc
4-III	E-:maj	127.863	.	voice	4E-- 4g- 4b--
4-VII	B-:sus4	128.262	.	voice	4B- 4dd 4ff
=66	=66	=66	=66	=66	=66
2.IV	F:maj	128.66	.	voice	2F 2a 2cc
4-III	E-:maj	129.857	.	voice	4E-- 4g- 4b--
4-VII	B-:sus4	130.255	.	voice	4B- 4dd 4ff
=67	=67	=67	=67	=67	=67
2.I	C:maj	130.654	newline	voice	2C 2e 2g
2-VII	B-:maj	131.851	.	voice	2B- 2dd 2ff
=68	=68	=68	=68	=68	=68
2.I	C:maj	132.649	.	voice	2C 2e 2g
2-VII	B-:maj	133.846	.	voice	2B- 2dd 2ff
=69	=69	=69	=69	=69	=69
2.I	C:maj	134.644	.	voice	2C 2e 2g
2-VII	B-:maj	135.841	.	voice	2B- 2dd 2ff
=70	=70	=70	=70	=70	=70
4%5I	C:maj	136.64	.	voice	4C 4e 4g
=71	=71	=71	=71	=71	=71
*>A3_interlude	*>A3_interlude	*>A3_interlude	*>A3_interlude	*>A3_interlude	*>A3_interlude
2.i	C:min	138.635	newline	flute	2C 2e- 2g
2iv	F:sus4	139.856	.	flute	2F 2a- 2cc
=72	=72	=72	=72	=72	=72
2.i	C:min	140.67	.	flute	2C 2e- 2g
2iv	F:sus4	141.892	.	flute	2F 2a- 2cc
=73	=73	=73	=73	=73	=73
2.i	C:min	142.706	.	flute	2C 2e- 2g
2iv	F:sus4	143.928	.	flute	2F 2a- 2cc
=74	=74	=74	=74	=74	=74
2.i	C:min	144.742	.	flute	2C 2e- 2g
2iv	F:sus4	145.963	.	flute	2F 2a- 2cc
=75	=75	=75	=75	=75	=75
2.IV	F:maj	146.778	newline	flute	2F 2a 2cc
4-III	E-:maj	147.979	.	flute	4E-- 4g- 4b--
4-VII	B-:sus4	148.38	.	flute	4B- 4dd 4ff
=76	=76	=76	=76	=76	=76
4%5i7	C:min7	148.78	.	flute	4C 4e- 4g 4b
=77	=77	=77	=77	=77	=77
2.IV	F:maj	150.783	.	flute	2F 2a 2cc
4-III	E-:maj	151.984	.	flute	4E-- 4g- 4b--
4-VII	B-:sus4	152.385	.	flute	4B- 4dd 4ff
=78	=78	=78	=78	=78	=78
4%5i7	C:min7	152.785	.	flute	4C 4e- 4g 4b
=79	=79	=79	=79	=79	=79
4%5i	C:5	154.788	newline	flute	4C 4e- 4g
=80	=80	=80	=80	=80	=80
*>B2_chorus	*>B2_chorus	*>B2_chorus	*>B2_chorus	*>B2_chorus	*>B2_chorus
2.I7	C:7	156.86	newline	voice	2C 2e 2g 2b
2-VII	B-:maj	158.035	.	voice	2B- 2dd 2ff
=81	=81	=81	=81	=81	=81
2.I7	C:7	158.818	.	voice	2C 2e 2g 2b
2-VII	B-:maj	159.993	.	voice	2B- 2dd 2ff
=82	=82	=82	=82	=82	=82
2.I7	C:7	160.777	.	voice	2C 2e 2g 2b
2-VII	B-:maj	161.952	.	voice	2B- 2dd 2ff
=83	=83	=83	=83	=83	=83
2.I7	C:7	162.735	.	voice	2C 2e 2g 2b
2-VII	B-:maj	163.91	.	voice	2B- 2dd 2ff
=84	=84	=84	=84	=84	=84
2.I7	C:7	164.694	newline	voice	2C 2e 2g 2b
2-VII	B-:maj	165.874	.	voice	2B- 2dd 2ff
=85	=85	=85	=85	=85	=85
2.I7	C:7	166.661	.	voice	2C 2e 2g 2b
2-VII	B-:maj	167.841	.	voice	2B- 2dd 2ff
=86	=86	=86	=86	=86	=86
2.I7	C:7	168.628	.	voice	2C 2e 2g 2b
2-VII	B-:maj	169.809	.	voice	2B- 2dd 2ff
=87	=87	=87	=87	=87	=87
2.I7	C:7	170.595	.	voice	2C 2e 2g 2b
2-VII	B-:maj	171.776	.	voice	2B- 2dd 2ff
=88	=88	=88	=88	=88	=88
*>B3_outro	*>B3_outro	*>B3_outro	*>B3_outro	*>B3_outro	*>B3_outro
2.I7	C:7	172.563	newline	flute	2C 2e 2g 2b
2-VII	B-:maj	173.746	.	flute	2B- 2dd 2ff
=89	=89	=89	=89	=89	=89
2.I7	C:7	174.535	.	flute	2C 2e 2g 2b
2-VII	B-:maj	175.719	.	flute	2B- 2dd 2ff
=90	=90	=90	=90	=90	=90
2.I7	C:7	176.508	.	flute	2C 2e 2g 2b
2-VII	B-:maj	177.691	.	flute	2B- 2dd 2ff
=91	=91	=91	=91	=91	=91
2.I7	C:7	178.48	.	flute	2C 2e 2g 2b
4-VII	B-:maj	179.664	.	flute	4B- 4dd 4ff
4IVb	F:maj/3	180.058	.	flute	4f 4A 4cc
=92	=92	=92	=92	=92	=92
2.I7	C:7	180.453	newline	flute	2C 2e 2g 2b
4-VII	B-:maj	181.639	.	flute	4B- 4dd 4ff
4IVb	F:maj/3	182.035	.	flute	4f 4A 4cc
=93	=93	=93	=93	=93	=93
2.I7	C:7	182.43	.	flute	2C 2e 2g 2b
4-VII	B-:maj	183.617	.	flute	4B- 4dd 4ff
4IV	F:maj	184.012	.	flute	4F 4a 4cc
=94	=94	=94	=94	=94	=94
2.I7	C:7	184.407	.	flute	2C 2e 2g 2b
4-VII	B-:maj	185.594	.	flute	4B- 4dd 4ff
4IV	F:maj	185.989	.	flute	4F 4a 4cc
=95	=95	=95	=95	=95	=95
2.I7	C:7	186.385	.	flute	2C 2e 2g 2b
4-VII	B-:maj	187.571	.	flute	4B- 4dd 4ff
4IV	F:maj	187.966	.	flute	4F 4a 4cc
=96	=96	=96	=96	=96	=96
*>_fadeout	*>_fadeout	*>_fadeout	*>_fadeout	*>_fadeout	*>_fadeout
2.I7	C:7	188.362	newline	flute	2C 2e 2g 2b
4-VII	B-:maj	189.544	.	flute	4B- 4dd 4ff
4IV	F:maj	189.937	.	flute	4F 4a 4cc
=97	=97	=97	=97	=97	=97
2.I7	C:7	190.331	.	flute	2C 2e 2g 2b
4-VII	B-:maj	191.513	.	flute	4B- 4dd 4ff
4IV	F:maj	191.907	.	flute	4F 4a 4cc
=98	=98	=98	=98	=98	=98
2.I7	C:7	192.301	.	flute	2C 2e 2g 2b
4-VII	B-:maj	193.483	.	flute	4B- 4dd 4ff
4IV	F:maj	193.877	.	flute	4F 4a 4cc
=99	=99	=99	=99	=99	=99
2.I7	C:7	194.271	.	flute	2C 2e 2g 2b
4-VII	B-:maj	195.452	.	flute	4B- 4dd 4ff
4IV	F:maj	195.846	.	flute	4F 4a 4cc
=100	=100	=100	=100	=100	=100
2.I7	C:7	196.24	newline	flute	2C 2e 2g 2b
4-VII	B-:maj	196.633	.	flute	4B- 4dd 4ff
4IV	F:maj	196.764	.	flute	4F 4a 4cc
=101	=101	=101	=101	=101	=101
2.I7	C:7	196.895	.	flute	2C 2e 2g 2b
4-VII	B-:maj	197.289	.	flute	4B- 4dd 4ff
4IV	F:maj	197.42	.	flute	4F 4a 4cc
=102	=102	=102	=102	=102	=102
2.I7	C:7	197.551	.	flute	2C 2e 2g 2b
4-VII	B-:maj	197.944	.	flute	4B- 4dd 4ff
4IV	F:maj	198.075	.	flute	4F 4a 4cc
=103	=103	=103	=103	=103	=103
2.I7	C:7	198.206	.	flute	2C 2e 2g 2b
4-VII	B-:maj	198.599	.	flute	4B- 4dd 4ff
4IV	F:maj	198.73	.	flute	4F 4a 4cc
1r;	N	198.861	.	r	1r;
1r;	N	203.468	.	r	1r;
*-	*-	*-	*-	*-	*-
!!!OTL: Living In The Past
!!!COC: Jethro Tull
!!!BillboardChartDate: 1972/12/16
!!!BillboardPeak: 11
!!!BillboardWeeksOnChart: 14
!!!SampleTargetRank: 19
!!!SampleActualRank: 20
!!!SampleID#: 0706
!!!RDF**harmony: **recip + pitch class of root + harmonic quality
!!!RDF**harte: Chris Harte's syntax, used by MIREX
!!!RDF**phrase: newline = linebreak in original McGill transcription
!!!RDF**timestamp: McGill audio timestamp in seconds
!!!RDF**leadinstrument: original McGill primary instrumentation annotation
!!!RDT: 2017/01/12/
!!!ENC: Nathaniel Condit-Schultz
!!!EST: Awating manual error checking and editing.
